images/ext_link.svg

<svg height="18" viewBox="0 0 18 18" width="18" xmlns="http://www.w3.org/2000/svg"><path d="m0 0v18h18v-4.5h-2.25v2.25h-13.5v-13.5h2.25v-2.25zm9 0 3.375 3.375-5.625 5.625 2.25 2.25 5.625-5.625 3.375 3.375v-9z"/></svg>

<svg xmlns="http://www.w3.org/2000/svg" width="18" height="18" viewBox="0 0 18 18">
  <path id="Icon_open-external-link" data-name="Icon open-external-link" d="M0,0V18H18V13.5H15.75v2.25H2.25V2.25H4.5V0ZM9,0l3.375,3.375L6.75,9,9,11.25l5.625-5.625L18,9V0Z"/>
</svg>
